X: 2
T: Fare You Well   #2
R: air
%S: s:2 b:16(8+8)
M: 2/4
L: 1/16
B: O'Neill's 1850 #2
Q: "Slow"
O: F.O'Neill
Z: Norbert Paap, norbertp@bdu.uva.nl
N: Compacted by using labels and play order [JC]
P: Play ABA
K: D
"^A"[|] (fg) \
| (a3b) (g3a) | f4 (e3d) | (d3c) (A3B) | c4 (d3e) |\
| (d3c) (3(A2G2F2) | G4 (F2G2) | (Ad3) (d3e) | "^fine"d6 |]
"^B"[| A2 \
| (d3e) (f3g) | a4 (a3g) | (a3b) (a3f) | g4 (g3g) |\
| (a3b) (a3g) | {e}=f4 (e3c) | (d3c) (A3G) | "^d.C."A6 |]
